X: 21814
T: Kings Of Kerry
R: slide
M: 12/8
K: Amajor
c3 cBA F2A E2A|F2A E2c B3 BAB|
c3 cBA F2A E2f|ecA BcB A3 A2B|
c3 cBA F2A E2A|F2A E2c B3 BAB|
c3 cBA F2A E2f|ecA BcB A3 Ace||
a3 afe f2a e2A|c3 cBA B3 Bce|
a3 afe f2a e2f|ecA BcB A3 Ace|
a3 afe f2a e2A|c3 cBA B3 BAB|
c3 cBA F2A E2f|ecA BcB A3 A3||

